src/assets/outline/Convertshape2.svg

<svg width="24" height="24" viewBox="0 0 24 24"  xmlns="http://www.w3.org/2000/svg">
<path d="M7.85 22.75H5.15C2.49 22.75 1.25 21.51 1.25 18.85V16.15C1.25 13.49 2.49 12.25 5.15 12.25H7.85C10.51 12.25 11.75 13.49 11.75 16.15V18.85C11.75 21.51 10.51 22.75 7.85 22.75ZM5.15 13.75C3.31 13.75 2.75 14.31 2.75 16.15V18.85C2.75 20.69 3.31 21.25 5.15 21.25H7.85C9.69 21.25 10.25 20.69 10.25 18.85V16.15C10.25 14.31 9.69 13.75 7.85 13.75H5.15Z" />
<path d="M15.0002 22.75C14.7302 22.75 14.4802 22.6 14.3502 22.37C14.2202 22.14 14.2202 21.85 14.3602 21.62L15.4102 19.87C15.6202 19.51 16.0802 19.4 16.4402 19.61C16.8002 19.82 16.9102 20.28 16.7002 20.64L16.4302 21.09C19.1902 20.44 21.2602 17.96 21.2602 15C21.2602 14.59 21.6002 14.25 22.0102 14.25C22.4202 14.25 22.7602 14.59 22.7602 15C22.7502 19.27 19.2702 22.75 15.0002 22.75Z" />
<path d="M2 9.75C1.59 9.75 1.25 9.41 1.25 9C1.25 4.73 4.73 1.25 9 1.25C9.27 1.25 9.52 1.4 9.65 1.63C9.78 1.86 9.78 2.15 9.64 2.38L8.59 4.14C8.38 4.49 7.92 4.61 7.56 4.39C7.21 4.18 7.09 3.72 7.31 3.36L7.58 2.91C4.81 3.56 2.75 6.04 2.75 9C2.75 9.41 2.41 9.75 2 9.75Z" />
<path d="M17.5 11.75C14.61 11.75 12.25 9.39 12.25 6.5C12.25 3.61 14.61 1.25 17.5 1.25C20.39 1.25 22.75 3.61 22.75 6.5C22.75 9.39 20.39 11.75 17.5 11.75ZM17.5 2.75C15.43 2.75 13.75 4.43 13.75 6.5C13.75 8.57 15.43 10.25 17.5 10.25C19.57 10.25 21.25 8.57 21.25 6.5C21.25 4.43 19.57 2.75 17.5 2.75Z" />
</svg>

<?xml version="1.0" encoding="UTF-8"?>
<svg width="24" height="24" viewBox="0 0 24 24" xmlns="http://www.w3.org/2000/svg">
 <path d="m7.85 22.75h-2.7c-2.66 0-3.9-1.24-3.9-3.9v-2.7c0-2.66 1.24-3.9 3.9-3.9h2.7c2.66 0 3.9 1.24 3.9 3.9v2.7c0 2.66-1.24 3.9-3.9 3.9zm-2.7-9c-1.84 0-2.4 0.56-2.4 2.4v2.7c0 1.84 0.56 2.4 2.4 2.4h2.7c1.84 0 2.4-0.56 2.4-2.4v-2.7c0-1.84-0.56-2.4-2.4-2.4h-2.7z"/>
 <path d="m15 22.75c-0.27 0-0.52-0.15-0.65-0.38s-0.13-0.52 0.01-0.75l1.05-1.75c0.21-0.36 0.67-0.47 1.03-0.26s0.47 0.67 0.26 1.03l-0.27 0.45c2.76-0.65 4.83-3.13 4.83-6.09 0-0.41 0.34-0.75 0.75-0.75s0.75 0.34 0.75 0.75c-0.01 4.27-3.49 7.75-7.76 7.75z"/>
 <path d="m2 9.75c-0.41 0-0.75-0.34-0.75-0.75 0-4.27 3.48-7.75 7.75-7.75 0.27 0 0.52 0.15 0.65 0.38s0.13 0.52-0.01 0.75l-1.05 1.76c-0.21 0.35-0.67 0.47-1.03 0.25-0.35-0.21-0.47-0.67-0.25-1.03l0.27-0.45c-2.77 0.65-4.83 3.13-4.83 6.09 0 0.41-0.34 0.75-0.75 0.75z"/>
 <path d="m17.5 11.75c-2.89 0-5.25-2.36-5.25-5.25s2.36-5.25 5.25-5.25 5.25 2.36 5.25 5.25-2.36 5.25-5.25 5.25zm0-9c-2.07 0-3.75 1.68-3.75 3.75s1.68 3.75 3.75 3.75 3.75-1.68 3.75-3.75-1.68-3.75-3.75-3.75z"/>
</svg>
